src/Icon/svgs/HeartOutline.svg

<svg width="24" height="24" viewBox="0 0 24 24" fill="none" xmlns="http://www.w3.org/2000/svg">
<path fill-rule="evenodd" clip-rule="evenodd" d="M20.5 9C20.5 7 19 5.1 16.8 5.1C14.5 5.1 13 6.73 12 8.43C11 6.73 9.5 5.1 7.2 5.1C5 5.1 3.5 6.86749 3.5 9C3.5 13.6198 8.44902 16.6671 12 18.6231C15.551 16.6671 20.5 13.6198 20.5 9ZM1.5 8.82353C1.5 5.60728 3.96243 3 7 3C9.7 3 11 4 12 5.2C13 4 14.3 3 17 3C20.0376 3 22.5 5.60728 22.5 8.82353C22.5 14.8266 16.6842 18.5201 12 21C7.31582 18.5201 1.5 14.8266 1.5 8.82353Z" fill="#1B1C1D"/>
</svg>

<svg xmlns="http://www.w3.org/2000/svg" width="24" height="24" fill="none"><path fill-rule="evenodd" d="M20.5 9c0-2-1.5-3.9-3.7-3.9-2.3 0-3.8 1.63-4.8 3.33-1-1.7-2.5-3.33-4.8-3.33C5 5.1 3.5 6.867 3.5 9c0 4.62 4.949 7.667 8.5 9.623 3.551-1.956 8.5-5.003 8.5-9.623zm-19-.176C1.5 5.607 3.962 3 7 3c2.7 0 4 1 5 2.2C13 4 14.3 3 17 3c3.038 0 5.5 2.607 5.5 5.824C22.5 14.827 16.684 18.52 12 21 7.316 18.52 1.5 14.827 1.5 8.824z" fill="#1B1C1D"/></svg>
